art/ps2.svg

<?xml version="1.0" encoding="utf-8"?>
<!-- Generator: Adobe Illustrator 16.0.3, SVG Export Plug-In . SVG Version: 6.00 Build 0)  -->
<!DOCTYPE svg PUBLIC "-//W3C//DTD SVG 1.1//EN" "http://www.w3.org/Graphics/SVG/1.1/DTD/svg11.dtd">
<svg version="1.1" id="Ebene_2" xmlns="http://www.w3.org/2000/svg" xmlns:xlink="http://www.w3.org/1999/xlink" x="0px" y="0px"
	 width="566.926px" height="179.318px" viewBox="0 0 566.926 179.318" enable-background="new 0 0 566.926 179.318"
	 xml:space="preserve">
<g>
	
		<linearGradient id="SVGID_1_" gradientUnits="userSpaceOnUse" x1="478.7065" y1="416.1619" x2="478.7065" y2="513.9246" gradientTransform="matrix(1 0 0 1 -0.0898 -416.1621)">
		<stop  offset="0" style="stop-color:#33438A"/>
		<stop  offset="1" style="stop-color:#0098DF"/>
	</linearGradient>
	<polygon fill="url(#SVGID_1_)" points="559.93,6.986 559.93,45.387 390.307,45.387 390.307,97.762 566.926,97.762 566.926,90.777 
		397.297,90.777 397.297,52.375 566.926,52.375 566.926,0 390.307,0 390.307,6.986 	"/>
	
		<linearGradient id="SVGID_2_" gradientUnits="userSpaceOnUse" x1="270.4648" y1="416.1619" x2="270.4648" y2="513.9246" gradientTransform="matrix(1 0 0 1 -0.0898 -416.1621)">
		<stop  offset="0" style="stop-color:#33438A"/>
		<stop  offset="1" style="stop-color:#0098DF"/>
	</linearGradient>
	<polygon fill="url(#SVGID_2_)" points="364.131,0 364.131,6.986 274.038,6.986 274.038,97.762 176.62,97.762 176.62,90.777 
		266.713,90.777 266.713,0 	"/>
	
		<linearGradient id="SVGID_3_" gradientUnits="userSpaceOnUse" x1="88.3994" y1="416.1619" x2="88.3994" y2="513.9246" gradientTransform="matrix(1 0 0 1 -0.0898 -416.1621)">
		<stop  offset="0" style="stop-color:#33438A"/>
		<stop  offset="1" style="stop-color:#0098DF"/>
	</linearGradient>
	<polygon fill="url(#SVGID_3_)" points="6.986,97.762 6.986,52.375 176.62,52.375 176.62,0 0,0 0,6.873 169.639,6.986 
		169.639,45.387 0,45.387 0,97.762 	"/>
	<path id="path788" fill="#1F1A17" d="M143.989,131.765v34.387h5.37v-31.087h4.972c0,0,3.604-0.015,4.842,1.604
		c1.046,1.375,1.238,3.858,1.238,5.541c0,1.803-0.11,4.575-0.717,5.594c-0.915,1.551-2.41,1.859-3.791,1.859h-3.28v3.048h4.712
		c0,0,4.255,0.188,6.09-1.676c2.243-2.29,2.81-5.348,2.81-9.446c0-3.736-1.35-7.494-4.116-8.763
		c-2.288-1.063-6.414-1.063-6.414-1.063L143.989,131.765L143.989,131.765z"/>
	<polygon id="polygon790" fill="#1F1A17" points="170.451,166.152 175.831,166.152 175.831,131.765 170.451,131.765 	"/>
	<polygon id="polygon792" fill="#1F1A17" points="204.365,139.775 214.186,165.518 208.55,179.318 213.005,179.318 229.233,139.775 
		224.262,139.775 217.191,159.049 210.608,139.775 	"/>
	<path id="path794" fill="#1F1A17" d="M233.277,165.93v-3.242c0,0,5.674,0.221,6.853,0.221c2.623,0,3.927-0.563,4.909-1.609
		c0.583-0.627,1.111-3.439,1.111-4.433c0-1.008-0.187-3.164-0.579-4.039c-0.404-0.868-1.316-1.675-2.692-1.786
		c-0.973-0.09-2.494-0.277-4.253-0.364c-2.478-0.113-4.115-1.414-4.91-2.336c-0.776-0.938-1.827-2.321-1.827-6.629
		c0-4.286,1.11-6.683,2.219-7.805c1.118-1.121,2.753-1.612,3.999-1.829c1.432-0.254,3.791-0.271,3.791-0.271l7.516,0.225v3.245
		c0,0-5.484-0.211-6.661-0.211c-2.623,0-3.408,0.552-4.39,1.604c-0.574,0.634-1.027,2.363-1.027,3.368c0,0.988,0.117,3,0.506,3.868
		c0.392,0.875,1.312,1.676,2.679,1.799c0.975,0.073,2.495,0.271,4.256,0.357c2.49,0.124,4.124,1.407,4.908,2.344
		c0.784,0.935,1.836,2.898,1.836,7.187s-1.118,7.354-2.229,8.458c-1.11,1.133-2.74,1.626-3.99,1.841
		c-1.44,0.261-3.798,0.261-3.798,0.261L233.277,165.93L233.277,165.93z"/>
	<path id="path796" fill="#1F1A17" d="M262.552,135.065h-5.361v25.23c0,0,0.129,2.3,0.257,3.104c0.135,0.813,1.315,2.75,4.388,2.75
		l5.561-0.12v-3.237c0,0-1.514,0.113-2.418,0.113c-0.921,0-2.041-0.067-2.229-1.629c-0.199-1.543-0.199-3.408-0.199-3.408v-14.857
		h6.056v-3.236h-6.056L262.552,135.065L262.552,135.065z"/>
	<polygon id="polygon798" fill="#1F1A17" points="314.328,166.152 319.696,166.152 319.696,139.775 314.328,139.775 	"/>
	<polygon id="polygon800" fill="#1F1A17" points="314.328,136.551 319.696,136.551 319.696,131.765 314.328,131.765 	"/>
	<path id="path802" fill="#1F1A17" d="M336.653,139.557c3.65,0,6.482,0.821,8.005,2.052c1.535,1.236,3.418,3.829,3.418,11.353
		c0,7.524-1.883,10.114-3.418,11.363c-1.522,1.229-4.354,2.049-8.005,2.049c-3.658,0-6.482-0.82-8.01-2.049
		c-1.527-1.249-3.414-3.839-3.414-11.363c0-7.521,1.887-10.114,3.414-11.353C330.17,140.38,332.995,139.557,336.653,139.557z
		 M332.981,144.615c-0.741,0.905-1.637,2.824-1.637,8.346c0,5.538,0.896,7.44,1.637,8.345c0.729,0.901,2.083,1.515,3.838,1.515
		c1.764,0,3.111-0.611,3.859-1.515c0.733-0.902,1.636-2.807,1.636-8.345c0-5.521-0.901-7.438-1.636-8.346
		c-0.748-0.901-2.097-1.501-3.859-1.501C335.064,143.114,333.709,143.714,332.981,144.615z"/>
	<path id="path804" fill="#1F1A17" d="M359.197,143.49l5.255-0.225c1.385,0,2.997,0.373,3.778,1.361
		c0.737,0.941,1.198,2.056,1.198,3.858v17.626h5.371v-18.065c0-3.419-1.049-5.396-2.627-6.644c-2.254-1.789-6.279-1.629-6.279-1.629
		l-12.03,0.229v26.106h5.334V143.49L359.197,143.49z"/>
	<path id="path806" fill="#1F1A17" d="M303.66,135.065h-5.374v25.23c0,0,0.127,2.3,0.26,3.104c0.131,0.813,1.303,2.75,4.381,2.75
		l5.566-0.12v-3.237c0,0-1.509,0.113-2.424,0.113c-0.907,0-2.029-0.067-2.223-1.629c-0.188-1.543-0.188-3.408-0.188-3.408v-14.857
		h6.042v-3.236h-6.041V135.065L303.66,135.065z"/>
	<path id="path808" fill="#1F1A17" d="M196.182,148.487c0-1.803-0.46-2.917-1.194-3.858c-0.787-0.988-2.407-1.359-3.784-1.359
		l-7.079,0.223v-3.486l8.522-0.229c0,0,4.03-0.16,6.284,1.629c1.565,1.245,2.621,3.225,2.621,6.644v17.813l-10.288,0.221
		c0,0-4.662,0.023-7.001-0.935c-2.29-0.93-3.537-3.485-3.537-7.021c0-3.415,1.052-5.411,2.622-6.659
		c2.255-1.783,6.275-1.61,6.275-1.61h3.288v3.048h-1.844c-1.375,0-2.795,0.253-3.577,1.236c-0.744,0.944-1.136,1.749-1.136,3.55
		c0,2.362,0.46,3.422,1.572,4.227c0.981,0.714,2.741,0.87,4.71,0.87l3.546-0.22V148.487L196.182,148.487z"/>
	<path id="path810" fill="#1F1A17" d="M286.663,148.487c0-1.803-0.453-2.917-1.188-3.858c-0.793-0.988-2.409-1.359-3.782-1.359
		l-7.072,0.223v-3.486l8.505-0.229c0,0,4.032-0.16,6.285,1.629c1.571,1.245,2.614,3.225,2.614,6.644v17.813l-10.272,0.221
		c0,0-4.664,0.023-7.013-0.935c-2.28-0.93-3.534-3.485-3.534-7.021c0-3.415,1.058-5.411,2.619-6.659
		c2.257-1.783,6.288-1.61,6.288-1.61h3.278v3.048h-1.843c-1.367,0-2.801,0.253-3.58,1.236c-0.734,0.944-1.135,1.749-1.135,3.55
		c0,2.362,0.471,3.422,1.572,4.227c0.981,0.714,2.749,0.87,4.713,0.87l3.545-0.22V148.487L286.663,148.487z"/>
	<path id="path816" fill="#1F1A17" d="M422.934,136.211c0.068,3.962-0.125,6.048-1.457,8.031c-1.174,1.742-3.498,3.331-8.635,3.331
		l-6.373-0.189c-1.008,0.019-3.607,0.313-4.84,1.632c-1.055,1.14-1.138,1.993-1.244,5.026v8.896h21.66v4.357h-23.678l-1.138-0.007
		c-1.609,0-3.191-1.092-3.191-3.277v-6.636c0.113-7.752,0.667-8.863,2.351-10.897c1.168-1.405,3.912-2.979,7.24-3.146
		c0.656-0.029,1.885-0.113,3.614-0.066c1.259,0.056,2.519,0.092,3.071,0.102c2.951,0.03,4.025-0.514,4.833-1.571
		c0.921-1.188,1.416-2.595,1.416-4.896c0-2.156-0.44-4.188-1.263-5.131c-0.994-1.093-1.948-1.822-4.717-1.822
		c-7.007-0.019-15.182,0.167-15.182,0.167v-4.116c0,0,7.99-0.34,16.139-0.46c5.074-0.087,7.872,1.262,9.295,3.118
		C422.338,130.589,422.867,132.418,422.934,136.211L422.934,136.211z"/>
</g>
</svg>

<?xml version="1.0" standalone="no"?><!-- Generator: Gravit.io --><svg xmlns="http://www.w3.org/2000/svg" xmlns:xlink="http://www.w3.org/1999/xlink" style="isolation:isolate" viewBox="0 0 566.926 179.318" width="566.926" height="179.318"><path d=" M 559.93 6.986 L 559.93 45.387 L 390.307 45.387 L 390.307 97.762 L 566.926 97.762 L 566.926 90.777 L 397.297 90.777 L 397.297 52.375 L 566.926 52.375 L 566.926 0 L 390.307 0 L 390.307 6.986 L 559.93 6.986 Z " fill="rgb(255,255,255)"/><path d=" M 364.131 0 L 364.131 6.986 L 274.038 6.986 L 274.038 97.762 L 176.62 97.762 L 176.62 90.777 L 266.713 90.777 L 266.713 0 L 364.131 0 Z " fill="rgb(255,255,255)"/><path d=" M 6.986 97.762 L 6.986 52.375 L 176.62 52.375 L 176.62 0 L 0 0 L 0 6.873 L 169.639 6.986 L 169.639 45.387 L 0 45.387 L 0 97.762 L 6.986 97.762 Z " fill="rgb(255,255,255)"/><path d=" M 143.989 131.765 L 143.989 166.152 L 149.359 166.152 L 149.359 135.065 L 154.331 135.065 C 154.331 135.065 157.935 135.05 159.173 136.669 C 160.219 138.044 160.411 140.527 160.411 142.21 C 160.411 144.013 160.301 146.785 159.694 147.804 C 158.779 149.355 157.284 149.663 155.903 149.663 L 152.623 149.663 L 152.623 152.711 L 157.335 152.711 C 157.335 152.711 161.59 152.899 163.425 151.035 C 165.668 148.745 166.235 145.687 166.235 141.589 C 166.235 137.853 164.885 134.095 162.119 132.826 C 159.831 131.763 155.705 131.763 155.705 131.763 L 143.989 131.765 L 143.989 131.765 L 143.989 131.765 Z " fill="rgb(255,255,255)"/><path d=" M 170.451 166.152 L 175.831 166.152 L 175.831 131.765 L 170.451 131.765 L 170.451 166.152 Z " fill="rgb(255,255,255)"/><path d=" M 204.365 139.775 L 214.186 165.518 L 208.55 179.318 L 213.005 179.318 L 229.233 139.775 L 224.262 139.775 L 217.191 159.049 L 210.608 139.775 L 204.365 139.775 Z " fill="rgb(255,255,255)"/><path d=" M 233.277 165.93 L 233.277 162.688 C 233.277 162.688 238.951 162.909 240.13 162.909 C 242.753 162.909 244.057 162.346 245.039 161.3 C 245.622 160.673 246.15 157.861 246.15 156.867 C 246.15 155.859 245.963 153.703 245.571 152.828 C 245.167 151.96 244.255 151.153 242.879 151.042 C 241.906 150.952 240.385 150.765 238.626 150.678 C 236.148 150.565 234.511 149.264 233.716 148.342 C 232.94 147.404 231.889 146.021 231.889 141.713 C 231.889 137.427 232.999 135.03 234.108 133.908 C 235.226 132.787 236.861 132.296 238.107 132.079 C 239.539 131.825 241.898 131.808 241.898 131.808 L 249.414 132.033 L 249.414 135.278 C 249.414 135.278 243.93 135.067 242.753 135.067 C 240.13 135.067 239.345 135.619 238.363 136.671 C 237.789 137.305 237.336 139.034 237.336 140.039 C 237.336 141.027 237.453 143.039 237.842 143.907 C 238.234 144.782 239.154 145.583 240.521 145.706 C 241.496 145.779 243.016 145.977 244.777 146.063 C 247.267 146.187 248.901 147.47 249.685 148.407 C 250.469 149.342 251.521 151.305 251.521 155.594 C 251.521 159.883 250.403 162.948 249.292 164.052 C 248.182 165.185 246.552 165.678 245.302 165.893 C 243.862 166.154 241.504 166.154 241.504 166.154 L 233.277 165.93 L 233.277 165.93 L 233.277 165.93 Z " fill="rgb(255,255,255)"/><path d=" M 262.552 135.065 L 257.191 135.065 L 257.191 160.295 C 257.191 160.295 257.32 162.595 257.448 163.399 C 257.583 164.212 258.763 166.149 261.836 166.149 L 267.397 166.029 L 267.397 162.792 C 267.397 162.792 265.883 162.905 264.979 162.905 C 264.058 162.905 262.938 162.838 262.75 161.276 C 262.551 159.733 262.551 157.868 262.551 157.868 L 262.551 143.011 L 268.607 143.011 L 268.607 139.775 L 262.551 139.775 L 262.552 135.065 L 262.552 135.065 L 262.552 135.065 Z " fill="rgb(255,255,255)"/><path d=" M 314.328 166.152 L 319.696 166.152 L 319.696 139.775 L 314.328 139.775 L 314.328 166.152 Z " fill="rgb(255,255,255)"/><path d=" M 314.328 136.551 L 319.696 136.551 L 319.696 131.765 L 314.328 131.765 L 314.328 136.551 Z " fill="rgb(255,255,255)"/><path d=" M 336.653 139.557 C 340.303 139.557 343.135 140.378 344.658 141.609 C 346.193 142.845 348.076 145.438 348.076 152.962 C 348.076 160.486 346.193 163.076 344.658 164.325 C 343.136 165.554 340.304 166.374 336.653 166.374 C 332.995 166.374 330.171 165.554 328.643 164.325 C 327.116 163.076 325.229 160.486 325.229 152.962 C 325.229 145.441 327.116 142.848 328.643 141.609 C 330.17 140.38 332.995 139.557 336.653 139.557 Z  M 332.981 144.615 C 332.24 145.52 331.344 147.439 331.344 152.961 C 331.344 158.499 332.24 160.401 332.981 161.306 C 333.71 162.207 335.064 162.821 336.819 162.821 C 338.583 162.821 339.93 162.21 340.678 161.306 C 341.411 160.404 342.314 158.499 342.314 152.961 C 342.314 147.44 341.413 145.523 340.678 144.615 C 339.93 143.714 338.581 143.114 336.819 143.114 C 335.064 143.114 333.709 143.714 332.981 144.615 Z " fill="rgb(255,255,255)"/><path d=" M 359.197 143.49 L 364.452 143.265 C 365.837 143.265 367.449 143.638 368.23 144.626 C 368.967 145.567 369.428 146.682 369.428 148.484 L 369.428 166.11 L 374.799 166.11 L 374.799 148.045 C 374.799 144.626 373.75 142.649 372.172 141.401 C 369.918 139.612 365.893 139.772 365.893 139.772 L 353.863 140.001 L 353.863 166.107 L 359.197 166.107 L 359.197 143.49 L 359.197 143.49 L 359.197 143.49 Z " fill="rgb(255,255,255)"/><path d=" M 303.66 135.065 L 298.286 135.065 L 298.286 160.295 C 298.286 160.295 298.413 162.595 298.546 163.399 C 298.677 164.212 299.849 166.149 302.927 166.149 L 308.493 166.029 L 308.493 162.792 C 308.493 162.792 306.984 162.905 306.069 162.905 C 305.162 162.905 304.04 162.838 303.846 161.276 C 303.658 159.733 303.658 157.868 303.658 157.868 L 303.658 143.011 L 309.7 143.011 L 309.7 139.775 L 303.659 139.775 L 303.659 135.065 L 303.66 135.065 L 303.66 135.065 Z " fill="rgb(255,255,255)"/><path d=" M 196.182 148.487 C 196.182 146.684 195.722 145.57 194.988 144.629 C 194.201 143.641 192.581 143.27 191.204 143.27 L 184.125 143.493 L 184.125 140.007 L 192.647 139.778 C 192.647 139.778 196.677 139.618 198.931 141.407 C 200.496 142.652 201.552 144.632 201.552 148.051 L 201.552 165.864 L 191.264 166.085 C 191.264 166.085 186.602 166.108 184.263 165.15 C 181.973 164.22 180.726 161.665 180.726 158.129 C 180.726 154.714 181.778 152.718 183.348 151.47 C 185.603 149.687 189.623 149.86 189.623 149.86 L 192.911 149.86 L 192.911 152.908 L 191.067 152.908 C 189.692 152.908 188.272 153.161 187.49 154.144 C 186.746 155.088 186.354 155.893 186.354 157.694 C 186.354 160.056 186.814 161.116 187.926 161.921 C 188.907 162.635 190.667 162.791 192.636 162.791 L 196.182 162.571 L 196.182 148.487 L 196.182 148.487 L 196.182 148.487 Z " fill="rgb(255,255,255)"/><path d=" M 286.663 148.487 C 286.663 146.684 286.21 145.57 285.475 144.629 C 284.682 143.641 283.066 143.27 281.693 143.27 L 274.621 143.493 L 274.621 140.007 L 283.126 139.778 C 283.126 139.778 287.158 139.618 289.411 141.407 C 290.982 142.652 292.025 144.632 292.025 148.051 L 292.025 165.864 L 281.753 166.085 C 281.753 166.085 277.089 166.108 274.74 165.15 C 272.46 164.22 271.206 161.665 271.206 158.129 C 271.206 154.714 272.264 152.718 273.825 151.47 C 276.082 149.687 280.113 149.86 280.113 149.86 L 283.391 149.86 L 283.391 152.908 L 281.548 152.908 C 280.181 152.908 278.747 153.161 277.968 154.144 C 277.234 155.088 276.833 155.893 276.833 157.694 C 276.833 160.056 277.304 161.116 278.405 161.921 C 279.386 162.635 281.154 162.791 283.118 162.791 L 286.663 162.571 L 286.663 148.487 L 286.663 148.487 L 286.663 148.487 Z " fill="rgb(255,255,255)"/><path d=" M 422.934 136.211 C 423.002 140.173 422.809 142.259 421.477 144.242 C 420.303 145.984 417.979 147.573 412.842 147.573 L 406.469 147.384 C 405.461 147.403 402.862 147.697 401.629 149.016 C 400.574 150.156 400.491 151.009 400.385 154.042 L 400.385 162.938 L 422.045 162.938 L 422.045 167.295 L 398.367 167.295 L 397.229 167.288 C 395.62 167.288 394.038 166.196 394.038 164.011 L 394.038 157.375 C 394.151 149.623 394.705 148.512 396.389 146.478 C 397.557 145.073 400.301 143.499 403.629 143.332 C 404.285 143.303 405.514 143.219 407.243 143.266 C 408.502 143.322 409.762 143.358 410.314 143.368 C 413.265 143.398 414.339 142.854 415.147 141.797 C 416.068 140.609 416.563 139.202 416.563 136.901 C 416.563 134.745 416.123 132.713 415.3 131.77 C 414.306 130.677 413.352 129.948 410.583 129.948 C 403.576 129.929 395.401 130.115 395.401 130.115 L 395.401 125.999 C 395.401 125.999 403.391 125.659 411.54 125.539 C 416.614 125.452 419.412 126.801 420.835 128.657 C 422.338 130.589 422.867 132.418 422.934 136.211 L 422.934 136.211 L 422.934 136.211 Z " fill="rgb(255,255,255)"/></svg>
